src/Assets/nextArrow.svg

<svg height="61" viewBox="0 0 61 61" width="61" xmlns="http://www.w3.org/2000/svg"><g fill="none" fill-rule="evenodd" transform="translate(-1 -1)"><path d="m31.5 1.000188c16.844688 0 30.500001 13.655124 30.500001 30.500064 0 16.844436-13.655313 30.49956-30.500001 30.49956s-30.500001-13.655124-30.500001-30.49956c0-16.84494 13.655313-30.500064 30.500001-30.500064z" fill="#880d1e"/><path d="m44.632096 29.592305-8.034704-8.216451c-.490172-.501492-1.285229-.501492-1.775494 0-.490265.501515-.490265 1.314128 0 1.81562l5.891612 6.024827h-21.458107c-.693253 0-1.255438.574586-1.255438 1.283814 0 .708745.562185 1.283814 1.255438 1.283814h21.458107l-5.891333 6.024321c-.490358.501515-.490358 1.314588 0 1.81562.245117.250999.566401.376004.887747.376004.321253 0 .642537-.125005.887747-.376004l8.034425-8.215945c.490358-.501515.490358-1.314611 0-1.81562z" fill="#fff"/></g></svg>

<?xml version="1.0" encoding="UTF-8"?>
<svg width="61px" height="61px" viewBox="0 0 61 61" version="1.1" xmlns="http://www.w3.org/2000/svg" xmlns:xlink="http://www.w3.org/1999/xlink">
    <!-- Generator: Sketch 53.2 (72643) - https://sketchapp.com -->
    <title>nextArrow</title>
    <desc>Created with Sketch.</desc>
    <g id="HomePage" stroke="none" stroke-width="1" fill="none" fill-rule="evenodd">
        <g id="HomePage-Desktop-HD" transform="translate(-1260.000000, -364.000000)">
            <g id="Section-1-:-Carousel" transform="translate(-1.000000, 124.000000)">
                <g id="nextArrow" transform="translate(1260.000000, 239.000000)">
                    <path d="M31.5,1.000188 C48.344688,1.000188 62.000001,14.655312 62.000001,31.500252 C62.000001,48.344688 48.344688,61.999812 31.5,61.999812 C14.655312,61.999812 0.999999,48.344688 0.999999,31.500252 C0.999999,14.655312 14.655312,1.000188 31.5,1.000188 Z" id="button" fill="#880D1E"></path>
                    <path d="M44.632096,29.592305 L36.597392,21.375854 C36.10722,20.874362 35.312163,20.874362 34.821898,21.375854 C34.331633,21.877369 34.331633,22.689982 34.821898,23.191474 L40.71351,29.216301 L19.255403,29.216301 C18.56215,29.216301 17.999965,29.790887 17.999965,30.500115 C17.999965,31.20886 18.56215,31.783929 19.255403,31.783929 L40.71351,31.783929 L34.822177,37.80825 C34.331819,38.309765 34.331819,39.122838 34.822177,39.62387 C35.067294,39.874869 35.388578,39.999874 35.709924,39.999874 C36.031177,39.999874 36.352461,39.874869 36.597671,39.62387 L44.632096,31.407925 C45.122454,30.90641 45.122454,30.093314 44.632096,29.592305 Z" id="arrow" fill="#FFFFFF"></path>
                </g>
            </g>
        </g>
    </g>
</svg>
